src/pos-icons/close-thick.svg

<svg height="24" viewBox="0 0 24 24" width="24" xmlns="http://www.w3.org/2000/svg"><path d="m20 6.91-2.91-2.91-5.09 5.09-5.09-5.09-2.91 2.91 5.09 5.09-5.09 5.09 2.91 2.91 5.09-5.09 5.09 5.09 2.91-2.91-5.09-5.09z"/></svg>

<?xml version="1.0" encoding="UTF-8"?><!DOCTYPE svg PUBLIC "-//W3C//DTD SVG 1.1//EN" "http://www.w3.org/Graphics/SVG/1.1/DTD/svg11.dtd"><svg xmlns="http://www.w3.org/2000/svg" xmlns:xlink="http://www.w3.org/1999/xlink" version="1.1" id="mdi-close-thick" width="24" height="24" viewBox="0 0 24 24"><path d="M20 6.91L17.09 4L12 9.09L6.91 4L4 6.91L9.09 12L4 17.09L6.91 20L12 14.91L17.09 20L20 17.09L14.91 12L20 6.91Z" /></svg>
